X: 89
T:Lady Banbury's Hornpipe
M:3/2l
L:1/8
Q:180
S:Playford
K:F
BA| c2 cd c2 AB G2 AB|cAcA c3 A F2 AB| c2 cd c2 AB G2 AB |cAcA c3 A F2:|
|: fg a2 gf g2 ed c2 fg| a2 gf g3 e c2 fg | agag f2 c2 d2 AB| cAcA c3 A F2 :|

